icons/hicolor/scalable/apps/pattern-tests.svg

<?xml version="1.0" encoding="UTF-8" standalone="no"?>
<svg
   xmlns:dc="http://purl.org/dc/elements/1.1/"
   xmlns:cc="http://creativecommons.org/ns#"
   xmlns:rdf="http://www.w3.org/1999/02/22-rdf-syntax-ns#"
   xmlns:svg="http://www.w3.org/2000/svg"
   xmlns="http://www.w3.org/2000/svg"
   xmlns:xlink="http://www.w3.org/1999/xlink"
   id="svg35"
   viewBox="0 0 32 32"
   version="1.1">
  <defs
     id="defs13">
    <linearGradient
       id="linearGradient957">
      <stop
         id="stop953"
         offset="0"
         style="stop-color:#deddda;stop-opacity:1" />
      <stop
         id="stop955"
         offset="1"
         style="stop-color:#f6f5f4;stop-opacity:1" />
    </linearGradient>
    <linearGradient
       gradientUnits="userSpaceOnUse"
       y2="-22.041"
       y1="-.040987"
       x2="-50.45"
       x1="-50.45"
       id="a">
      <stop
         id="stop2"
         offset="0"
         stop-color="#1b887e" />
      <stop
         id="stop4"
         offset=".071429"
         stop-color="#1b887e" />
      <stop
         id="stop6"
         offset=".21429"
         stop-color="#25b9ab" />
      <stop
         id="stop8"
         offset=".46429"
         stop-color="#1b887e" />
      <stop
         id="stop10"
         offset="1"
         stop-color="#1b887e" />
    </linearGradient>
    <linearGradient
       gradientTransform="translate(-1)"
       gradientUnits="userSpaceOnUse"
       y2="17.5"
       x2="20.001324"
       y1="17.5"
       x1="6.9986759"
       id="linearGradient959"
       xlink:href="#linearGradient957" />
    <linearGradient
       gradientUnits="userSpaceOnUse"
       y2="17.5"
       x2="20.001324"
       y1="17.5"
       x1="6.9986758"
       id="linearGradient959-6"
       xlink:href="#linearGradient957"
       gradientTransform="translate(-1,0.162109)" />
    <linearGradient
       gradientUnits="userSpaceOnUse"
       y2="17.5"
       x2="20.001324"
       y1="17.5"
       x1="6.9986758"
       id="linearGradient959-5"
       xlink:href="#linearGradient957"
       gradientTransform="translate(7,-2)" />
    <linearGradient
       gradientUnits="userSpaceOnUse"
       y2="17.5"
       x2="20.001324"
       y1="17.5"
       x1="6.9986758"
       id="linearGradient959-6-9"
       xlink:href="#linearGradient957"
       gradientTransform="translate(7,-1.837891)" />
  </defs>
  <metadata
     id="metadata15">
    <rdf:RDF>
      <cc:Work
         rdf:about="">
        <dc:format>image/svg+xml</dc:format>
        <dc:type
           rdf:resource="http://purl.org/dc/dcmitype/StillImage" />
        <dc:creator>
          <cc:Agent>
            <dc:title>Jakub Steiner</dc:title>
          </cc:Agent>
        </dc:creator>
        <dc:source>http://jimmac.musichall.cz</dc:source>
        <cc:license
           rdf:resource="http://creativecommons.org/licenses/by-sa/2.0/" />
        <dc:title></dc:title>
        <dc:subject>
          <rdf:Bag>
            <rdf:li>apparmor</rdf:li>
            <rdf:li>novell</rdf:li>
          </rdf:Bag>
        </dc:subject>
      </cc:Work>
      <cc:License
         rdf:about="http://creativecommons.org/licenses/by-sa/2.0/">
        <cc:permits
           rdf:resource="http://web.resource.org/cc/Reproduction" />
        <cc:permits
           rdf:resource="http://web.resource.org/cc/Distribution" />
        <cc:requires
           rdf:resource="http://web.resource.org/cc/Notice" />
        <cc:requires
           rdf:resource="http://web.resource.org/cc/Attribution" />
        <cc:permits
           rdf:resource="http://web.resource.org/cc/DerivativeWorks" />
        <cc:requires
           rdf:resource="http://web.resource.org/cc/ShareAlike" />
      </cc:License>
    </rdf:RDF>
  </metadata>
  <path
     id="path922-3-1"
     d="m 17,6.162109 c -0.552262,5.5e-5 -0.999945,0.447738 -1,1 v 1 c 5.5e-5,0.552262 0.447738,0.999945 1,1 V 10.025889 15 l -2.949219,8.845703 C 13.834817,24.49349 14.317161,25.16242 15,25.162109 h 11 c 0.682839,3.12e-4 1.165183,-0.668619 0.949219,-1.316406 L 24,15 V 9.162109 c 0.552262,-5.5e-5 0.999945,-0.447738 1,-1 v -1 c -5.5e-5,-0.552262 -0.447738,-0.999945 -1,-1 z"
     style="fill:url(#linearGradient959-6-9);fill-opacity:1;stroke:#deddda;stroke-width:2;stroke-linecap:butt;stroke-linejoin:miter;stroke-miterlimit:4;stroke-dasharray:none;stroke-opacity:1" />
  <path
     id="path922-2"
     d="m 17,6 c -0.552262,5.5e-5 -0.999945,0.447738 -1,1 v 1 c 5.5e-5,0.552262 0.447738,0.999945 1,1 v 0.86378 4.974111 l -2.949219,8.845703 C 13.834817,24.331381 14.317161,25.000311 15,25 h 11 c 0.682839,3.12e-4 1.165183,-0.668619 0.949219,-1.316406 L 24,14.837891 V 9 c 0.552262,-5.5e-5 0.999945,-0.447738 1,-1 V 7 C 24.999945,6.447738 24.552262,6.000055 24,6 Z"
     style="fill:url(#linearGradient959-5);fill-opacity:1;stroke:none;stroke-width:1px;stroke-linecap:butt;stroke-linejoin:miter;stroke-opacity:1" />
  <path
     id="rect927-7"
     d="m 17,12 v 2.837891 l -2.949219,8.845703 C 13.834817,24.331381 14.317161,25.000311 15,25 h 11 c 0.682839,3.12e-4 1.165183,-0.668619 0.949219,-1.316406 L 24,14.837891 V 12 Z"
     style="opacity:1;fill:#3584e4;fill-opacity:1;stroke:none;stroke-width:4;stroke-linecap:butt;stroke-linejoin:round;stroke-miterlimit:4;stroke-dasharray:none;stroke-opacity:1" />
  <path
     id="path985-0"
     d="m 21,15 a 1,1 0 0 0 -1,1 1,1 0 0 0 1,1 1,1 0 0 0 1,-1 1,1 0 0 0 -1,-1 z"
     style="opacity:1;fill:#1c71d8;fill-opacity:1;stroke:none;stroke-width:2;stroke-linecap:butt;stroke-linejoin:round;stroke-miterlimit:4;stroke-dasharray:none;stroke-opacity:1" />
  <path
     id="path987-9"
     d="m 25,22 a 1,1 0 0 0 -1,1 1,1 0 0 0 1,1 1,1 0 0 0 1,-1 1,1 0 0 0 -1,-1 z"
     style="opacity:1;fill:#98c1f1;fill-opacity:0.94736843;stroke:none;stroke-width:2;stroke-linecap:butt;stroke-linejoin:round;stroke-miterlimit:4;stroke-dasharray:none;stroke-opacity:1" />
  <path
     id="path922-3"
     d="m 9,8.162109 c -0.552262,5.52e-5 -0.999945,0.4477381 -1,1 v 1 c 5.5e-5,0.552262 0.447738,0.999945 1,1 V 12.025889 17 L 6.050781,25.845703 C 5.8348168,26.49349 6.317161,27.16242 7,27.162109 h 11 c 0.682839,3.12e-4 1.165183,-0.668619 0.949219,-1.316406 L 16,17 v -5.837891 c 0.552262,-5.5e-5 0.999945,-0.447738 1,-1 v -1 c -5.5e-5,-0.5522619 -0.447738,-0.9999448 -1,-1 z"
     style="fill:url(#linearGradient959-6);fill-opacity:1;stroke:#deddda;stroke-width:2;stroke-linecap:butt;stroke-linejoin:miter;stroke-miterlimit:4;stroke-dasharray:none;stroke-opacity:1" />
  <path
     id="path922"
     d="M 9,8 C 8.4477381,8.0000552 8.0000552,8.4477381 8,9 v 1 c 5.52e-5,0.552262 0.4477381,0.999945 1,1 v 0.86378 4.974111 L 6.0507812,25.683594 C 5.8348168,26.331381 6.3171614,27.000311 7,27 h 11 c 0.682839,3.12e-4 1.165183,-0.668619 0.949219,-1.316406 L 16,16.837891 V 11 c 0.552262,-5.5e-5 0.999945,-0.447738 1,-1 V 9 C 16.999945,8.4477381 16.552262,8.0000552 16,8 Z"
     style="fill:url(#linearGradient959);fill-opacity:1;stroke:none;stroke-width:1px;stroke-linecap:butt;stroke-linejoin:miter;stroke-opacity:1" />
  <path
     id="rect927"
     d="m 9,14 v 2.837891 L 6.0507812,25.683594 C 5.8348173,26.331381 6.317161,27.000311 7,27 h 11 c 0.682839,3.12e-4 1.165183,-0.668619 0.949219,-1.316406 L 16,16.837891 V 14 Z"
     style="opacity:1;fill:#33d17a;fill-opacity:1;stroke:none;stroke-width:4;stroke-linecap:butt;stroke-linejoin:round;stroke-miterlimit:4;stroke-dasharray:none;stroke-opacity:1" />
  <path
     id="path985"
     d="m 17,24 a 1,1 0 0 0 -1,1 1,1 0 0 0 1,1 1,1 0 0 0 1,-1 1,1 0 0 0 -1,-1 z"
     style="opacity:1;fill:#57e389;fill-opacity:1;stroke:none;stroke-width:2;stroke-linecap:butt;stroke-linejoin:round;stroke-miterlimit:4;stroke-dasharray:none;stroke-opacity:1" />
  <circle
     r="1"
     cy="23"
     cx="11"
     id="path987"
     style="opacity:1;fill:#2ec27e;fill-opacity:0.94736843;stroke:none;stroke-width:2;stroke-linecap:butt;stroke-linejoin:round;stroke-miterlimit:4;stroke-dasharray:none;stroke-opacity:1" />
  <circle
     r="1"
     cy="20"
     cx="14"
     id="path1060"
     style="opacity:0.7;fill:#26a269;fill-opacity:0.94736843;stroke:none;stroke-width:2;stroke-linecap:butt;stroke-linejoin:round;stroke-miterlimit:4;stroke-dasharray:none;stroke-opacity:1" />
  <circle
     r="2"
     cy="14"
     cx="11"
     id="path1074"
     style="opacity:0.7;fill:#33d17a;fill-opacity:0.94736843;stroke:none;stroke-width:2;stroke-linecap:butt;stroke-linejoin:round;stroke-miterlimit:4;stroke-dasharray:none;stroke-opacity:1" />
  <circle
     r="1"
     cy="16"
     cx="11"
     id="path1062"
     style="opacity:0.7;fill:#57e389;fill-opacity:0.94736843;stroke:none;stroke-width:2;stroke-linecap:butt;stroke-linejoin:round;stroke-miterlimit:4;stroke-dasharray:none;stroke-opacity:1" />
  <circle
     r="1"
     cy="14"
     cx="13"
     id="path1064"
     style="opacity:0.7;fill:#33d17a;fill-opacity:0.94736843;stroke:none;stroke-width:2;stroke-linecap:butt;stroke-linejoin:round;stroke-miterlimit:4;stroke-dasharray:none;stroke-opacity:1" />
  <circle
     r="1"
     cy="12"
     cx="21"
     id="path1076"
     style="opacity:0.7;fill:#3584e4;fill-opacity:0.94736843;stroke:none;stroke-width:2;stroke-linecap:butt;stroke-linejoin:round;stroke-miterlimit:4;stroke-dasharray:none;stroke-opacity:1" />
</svg>

<svg version="1.1" viewBox="0 0 32 32" width="32" height="32" xmlns="http://www.w3.org/2000/svg" xmlns:xlink="http://www.w3.org/1999/xlink">
 <defs>
  <linearGradient id="a">
   <stop stop-color="#deddda" offset="0"/>
   <stop stop-color="#f6f5f4" offset="1"/>
  </linearGradient>
  <linearGradient id="e" x1="6.9987" x2="20.001" y1="17.5" y2="17.5" gradientTransform="translate(-1)" gradientUnits="userSpaceOnUse" xlink:href="#a"/>
  <linearGradient id="c" x1="6.9987" x2="20.001" y1="17.5" y2="17.5" gradientTransform="translate(-1 .16211)" gradientUnits="userSpaceOnUse" xlink:href="#a"/>
  <linearGradient id="d" x1="6.9987" x2="20.001" y1="17.5" y2="17.5" gradientTransform="translate(7,-2)" gradientUnits="userSpaceOnUse" xlink:href="#a"/>
  <linearGradient id="b" x1="6.9987" x2="20.001" y1="17.5" y2="17.5" gradientTransform="translate(7 -1.8379)" gradientUnits="userSpaceOnUse" xlink:href="#a"/>
 </defs>
 <g>
  <path d="m17 6.1621c-0.55226 5.5e-5 -0.99994 0.44774-1 1v1c5.5e-5 0.55226 0.44774 0.99994 1 1v5.8379l-2.9492 8.8457c-0.21596 0.64779 0.26638 1.3167 0.94922 1.3164h11c0.68284 3.12e-4 1.1652-0.66862 0.94922-1.3164l-2.9492-8.8457v-5.8379c0.55226-5.5e-5 0.99994-0.44774 1-1v-1c-5.5e-5 -0.55226-0.44774-0.99994-1-1z" fill="url(#b)" stroke="#deddda" stroke-width="2"/>
  <path d="m17 6c-0.55226 5.5e-5 -0.99994 0.44774-1 1v1c5.5e-5 0.55226 0.44774 0.99994 1 1v5.8379l-2.9492 8.8457c-0.21596 0.64779 0.26638 1.3167 0.94922 1.3164h11c0.68284 3.12e-4 1.1652-0.66862 0.94922-1.3164l-2.9492-8.8457v-5.8379c0.55226-5.5e-5 0.99994-0.44774 1-1v-1c-5.5e-5 -0.55226-0.44774-0.99994-1-1z" fill="url(#d)"/>
  <path d="m17 12v2.8379l-2.9492 8.8457c-0.21596 0.64779 0.26638 1.3167 0.94922 1.3164h11c0.68284 3.12e-4 1.1652-0.66862 0.94922-1.3164l-2.9492-8.8457v-2.8379z" fill="#3584e4"/>
  <path d="m21 15a1 1 0 0 0-1 1 1 1 0 0 0 1 1 1 1 0 0 0 1-1 1 1 0 0 0-1-1z" fill="#1c71d8"/>
 </g>
 <path d="m25 22a1 1 0 0 0-1 1 1 1 0 0 0 1 1 1 1 0 0 0 1-1 1 1 0 0 0-1-1z" fill="#98c1f1" fill-opacity=".94737"/>
 <g>
  <path d="m9 8.1621c-0.55226 5.52e-5 -0.99994 0.44774-1 1v1c5.5e-5 0.55226 0.44774 0.99994 1 1v5.8379l-2.9492 8.8457c-0.21596 0.64779 0.26638 1.3167 0.94922 1.3164h11c0.68284 3.12e-4 1.1652-0.66862 0.94922-1.3164l-2.9492-8.8457v-5.8379c0.55226-5.5e-5 0.99994-0.44774 1-1v-1c-5.5e-5 -0.55226-0.44774-0.99994-1-1z" fill="url(#c)" stroke="#deddda" stroke-width="2"/>
  <path d="m9 8c-0.55226 5.52e-5 -0.99994 0.44774-1 1v1c5.52e-5 0.55226 0.44774 0.99994 1 1v5.8379l-2.9492 8.8457c-0.21596 0.64779 0.26638 1.3167 0.94922 1.3164h11c0.68284 3.12e-4 1.1652-0.66862 0.94922-1.3164l-2.9492-8.8457v-5.8379c0.55226-5.5e-5 0.99994-0.44774 1-1v-1c-5.5e-5 -0.55226-0.44774-0.99994-1-1z" fill="url(#e)"/>
  <path d="m9 14v2.8379l-2.9492 8.8457c-0.21596 0.64779 0.26638 1.3167 0.94922 1.3164h11c0.68284 3.12e-4 1.1652-0.66862 0.94922-1.3164l-2.9492-8.8457v-2.8379z" fill="#33d17a"/>
  <path d="m17 24a1 1 0 0 0-1 1 1 1 0 0 0 1 1 1 1 0 0 0 1-1 1 1 0 0 0-1-1z" fill="#57e389"/>
 </g>
 <g fill-opacity=".94737">
  <circle cx="11" cy="23" r="1" fill="#2ec27e"/>
  <circle cx="14" cy="20" r="1" fill="#26a269" opacity=".7"/>
  <circle cx="11" cy="14" r="2" fill="#33d17a" opacity=".7"/>
  <circle cx="11" cy="16" r="1" fill="#57e389" opacity=".7"/>
  <circle cx="13" cy="14" r="1" fill="#33d17a" opacity=".7"/>
  <circle cx="21" cy="12" r="1" fill="#3584e4" opacity=".7"/>
 </g>
</svg>
